X: 1
T: Poppy Leaf Hornpipe
R: Hornpipe, reel
B: New England Fiddler's Repertoire
Z: arr. T. Traub 11-16-97
M: 4/4
L: 1/8
K: G
B,A, |\
"G"G,B,DG B,DGB | DGBd GBdg |\
"C"edcB "Am"cBAG | "D"FdAF DCB,A, |\
"G"G,B,DG B,DGB |
DGBd GBdg |\
"C"edcB "D"cDEF | "G"G2 B2 G2 :||: Bc |\
"G"dBGB dBgd | bagf edcB |
"D"cAFA cAfd | agfe dcBA |\
"G"B/c/B GB "Am"c/d/c Ac | "G"d/e/d Bd "C"e2 dc |\
"G"BgdB "D"dcAF | "G"G2 B2 G2 :|
